!!!COM: Hugo Wolf
!!!CNT: Deutscher
!!!TXO: Deutsche 
!!!OTL: Dies Zu Deuten Bin Erbo2tig!
!!!ODT: 1889/01/24
!!!ONM: No. 42
!!!LYR: Johann Wolfgang von Goethe
!!!ENC: Brian Bice
!!!YOR: 45 Songs on Poems of Goethe and Eichendorff, Dover Publications, 1995
!!NB: Vocal melody and text only encoded.
**kern	**silbe
*clefG2	*
*k[f#c#g#]	*
*M4/4	*
=1	=1
2r	.
4r	.
{8.cc#	{Dies
16cc#	zu
=2	=2
4cc#	deu-
4e	-ten
4r	.
8.cc#	bin
16cc#	er-
=3	=3
4cc#	-bo2-
4e	-tig!
4r	.
8cc#	Hab
8ccn	ich
=4	=4
4b	dir
4ee	nicht
4dd#	oft
4cc#	er-
=5	=5
4ccn}	-za2hlt,}
4r	.
4r	.
{8e-	{wie
8e-	der
=6	=6
4.a-	Do-
8a-	-ge
4a-	von
4ccn	Ve-
=7	=7
4a-	-ne-
4e-	-dig
4r	.
8e-	mit
8e-	dem
=8	=8
4a-	Mee-
4b-	-re
4ccn	sich
4d	ver-
=9	=9
2gn}	-ma2hlt?}
2r	.
=13	=13
{4c#	{So
4c#	von
4c#	dei-
4c#	-nen
=14	=14
4c#	Fin-
4cc#	-ger-
4cc#	-glie-
4b	-dern
=15	=15
4a#	fiel
4b-	der
4b-	Ring
4b-	dem
=16	=16
4b-	Eu-
4ccn	-phrat
2ccn}	zu.}
=18	=18
2r	.
{4dd#	{Ach,
4ff#	zu
=19	=19
4ee	tau-
4ee	-send
4dd#	Him-
4b#	-mels-
=20	=20
4g#	-lie-
4b#	-dern,
4cc#	su2-
4ee	-sser
=21	=21
4bn	Traum,
4cc#	be-
4bn	-gei-
4a	-sterst
=22	=22
2g#}	du!}
2r	.
=24	=24
2r	.
4r	.
{4cc#	{Mich,
=25	=25
4r	.
8r	.
8cc#	der
8cc#	von
8cc#	den
8cc#	In-
8cc#	-do-
=26	=26
4cc#	-sta-
4cc#	-nen
4cc#	streif-
4cc#	-te
=27	=27
4cc#	bis
4ee	Da-
4dd#	-mas-
4dd#	-kus
=28	=28
2dd#}	hin,}
4r	.
{8e-	{um
8e-	mit
=29	=29
4.a-	neu-
8a-	-en
4a-	Ka-
4ccn	-ra-
=30	=30
4a-	-wa-
4e-	-nen
4r	.
8e-	bis
8e-	ans
=31	=31
4a-	ro-
4b-	-te
4ccn	Meer
4dd	zu
=32	=32
2dd}	ziehn,}
2r	.
=36	=36
{4cc#	{mich
4b	ver-
4a#	-ma2hlst
4dd	du
=37	=37
4cc#	dei-
4b	-nem
4a#	Flus-
4f#	-se,
=38	=38
4d	der
4f#	Ter-
4b	-ras-
4b	-se,
=39	=39
4b	die-
8cc#	-sem
8dd	|
[2ee	Hain:
=40	=40
2.ee]}	|}
4r	.
=41	=41
{4a	{hier
4a	soll
4a	bis
4a#	zum
=42	=42
4b	letz-
4ff#	-ten
4ff#	Kus-
8ee	-se
8dd	|
=43	=43
4cc#	dir
8ee	mein
8dd	|
4cc#	Geist
4f#	ge-
=44	=44
2e	-wid-
(4d	-met
4c#)	|
=45	=45
2c#}	sein.}
2r	.
*-	*-
